X:602
T:Farewell to Ireland
R:reel
D:Noel Hill: The Irish Concertina
Z:id:hn-reel-602
M:C|
K:D
D2FD ADFD|Addc def2|D2FD ADFA|(3Bcd AF EDB,C|
D2FD ADFD|Addc defg|~a3f gfef|1 dBAF GFEF:|2 dBAF Egfe||
|:~d3B A2FA|~A2FA DAFA|dedB A2FA|(3Bcd AF GFEF|
d2Ad BGdB|A2FA ABde|1 fdde dcBA|GFED CEA,e:|2 fdde d2 (3ABc|dBAF GFEF||
P:variations
|: D2 (3FED ADFD | Addc defd | D2 (3FED ADFA | (3Bcd AF GFEF |
D2 (3FED ADFD | Addc Bcde | (3fed ec dcBA |1 (3Bcd AF GFEF :|2 (3Bcd AF EFGA ||
|: d2dB AF~F2 | DF~F2 ADFA | dcdB ADFA | (3Bcd AF GFEF |
d2dc ~B3d | BA^GB ABde | (3fga ec dcBA |1 (3Bcd AF EFGA :|2 (3Bcd AF EDEF ||

